X:286
T:Glenlyon
R:Reel
B:The Athole Collection
M:C|
L:1/8
K:D
F|D/D/D d>F A3=c|B>GA>F G<E=CE|D/D/D d>F A3g|fdef d3:|
e|fdgf e=cce|fdge d3g|fdgf e=cce|afge d3e|fdgf e=cce|fdge fdge|
fdgf e=cce|f/g/a e>f d3||

